X:1
T:De nos deux cueurs
T:Jean Guyon
T:Source :  Second livre contenant 31 chansons eslevées à 4 parties---Paris---P.Attaignant---1535. Editor : André Vierendeels (03/01/18).
T:De nos deux cueurs
T:©
T:©
T:©
T:©
C:Jean Guyon
Z:©
%%score [ 1 [ 2 3 ] 4 ]
L:1/8
Q:1/4=128
M:2/2
K:C
V:1 treble nm="Soprano" snm="S"
V:2 treble-8 nm="Tenor 1" snm="T 1"
V:3 treble-8 nm="Tenor 2" snm="T 2"
V:4 bass nm="Bass" snm="B"
V:1
 E4 F2 D2 | E4 z2 A2 | A2 G2 A2 F2 | E4 z4 | E4 F2 D2 | E2 G2 FE A2- | A2 G2 A4 | z2 E2 G2 F2 | %8
w: De nos deux|cueurs soit|seul- le vo- lun-|té,|soit seul- le|vo- lun- * * *|* * té,|et le vou-|
 E4 z2 A2 | A2 G2 A2 F2 | G2 E2 F2 E2- | E2 D2 E4- | E8- | E8- | E4 z4 | z2 A4 G2 | A4 E2 E2 | %17
w: loir vray-|sem- blant de beaul-||* * té,|_|||main- *|tien en luy,|
 G6 G2 | A3 B c2 d2- | dc c4 B2 | c4 z4 | z2 c4 B2 | A4 G4 | z2 G2 G2 G2 | A2 G2 EFGE | FG A4 G2- | %26
w: mu- tu-|el- * * le'al-|* le- gean- *|ce,|sans con-|ver- tir|le plai- sir|en souf- fran- * * *||
"^#" G2 F2 G4- | G4 z4 | E4 F2 D2 | E4 z2 A2 | A2 G2 A2 F2 | E4 z4 | E4 F2 D2 | E2 G2 FE A2- | %34
w: * * ce,|_|qu'a- mour nous|a pour|loy- er pre- sen-|té,|pour loy- er|pre- * * * sen-|
 A2 G2 A4 | z2 E2 F2 D2 | E4 z2 A2 | A2 G2 A2 F2 | E4 z4 | E4 F2 D2 | E2 G2 FE A2- | %41
w: * * té,|qu'a- mour nous|a pour|mloy- er pre- sen-|té,|pour loy- er|pre- sen- * * *|
"^#" A2 G2 A4- | A8- | A8 |] %44
w: * * té.|_||
V:2
 z8 | z2 e2 f2 d2 | e3 d c2 d2 | B2 c2 A2 d2 | c2 B2 A4 | z2 e2 f2 d2 | e2 e2 c3 d | e4 z4 | %8
w: |De nos deux|cueurs _ _ soit|seul- le vo- lun-|* * té,|soit seul- le|vo- lun- * *|té,|
 z4 z2 A2 | c2 B2 ABcd | e4 A2 G2 | A3 B c2 B2 | c2 BA B4 | z2 A4 G2 | A4 E2 B2 | c3 d e4 | c4 A4 | %17
w: et|le vou- loir _ _ _|_ vray- sem-|blant _ _ de|beaul- * * té,|main- tien|en luy, main-|tien _ _|en luy,|
 B3 A G2 g2 | f2 f2 g2 a2- | a2 f2 g4 | e3 d ef g2- | g2 f2 g2 g2- | g2 f2 e4 | d4 z2 e2 | %24
w: mu- * * *|tu- el- le'al- le-|* * gean-||* * ce, sans|_ con- ver-|tir, le|
 d2 e3 dcB | A2 f4 e2 | d4 d4 | B2 c2 A2 B2 | z8 | z2 e2 f2 d2 | e3 d c2 d2 | B2 c2 A2 d2 | %32
w: plai- sir en _ _|_ souf- *|fran- ce,|qu'a- mour nous a||qu'a- mour nous|a pour loy- er|pre- sen- té, qu'a-|
 c2 B2 A4 | z2 e2 f2 d2 | e2 e2 e4 | z B c2 A2 B2 | z2 e2 f2 d2 | e3 d c2 d2 | B2 c2 A2 d2 | %39
w: mour nous a|pour loy- er|pre- sen- té,|qu'a- mour nous a|pour loy- er|pre- * * sen-|té, pour loy- er|
 c2 B2 A4 | e4 f2 d2 | e2 e2 c2 f2- | f2 e2 d4 | c8 |] %44
w: pre- sen _|té, pour loy-|er pre- sen- *||té.|
V:3
 z8 | z8 | E4 F2 D2 | E4 z2 A2 | A2 G2 A2 F2 | E2 B2 c2 A2 | B2 B2 A2 A2- | A2 c2 B2 AB | %8
w: ||De nos deux|cueurs soit|seul- le vo- lun-|te, soit seul- le|vo- lun- té, et|_ le vou- * *|
 cd e4 d2 | e4 z2 A2 | B2 c4 B2- | B2 A4 G2 | A4 E4 | z2 c4 B2 | c2 BA B4 | z2 A2 c2 B2 | %16
w: |loir, vray-|sem- * *|* blant de|beaul- té,|main- tien|en- * * luy|main- tien en|
 A2 A2 c3 d | e3 d B2 c2 | ABcd e2 f2- | fedc d4 | c4 z2 G2 | c4 d4 | c2 d2 B2 c2- | c2 B2 c2 B2 | %24
w: luy, mu- * tu-|el- * * le'al-|le- * * * * gean-||ce, sans|con- ver-|tir le plai- *||
 A2 B2 c2 G2 | d4 c2 B2 | A4 G4- | G4 z4 | B2 c2 A2 B2 | z8 | E4 F2 D2 | E4 z2 A2 | A2 G2 A2 F2 | %33
w: * * sir en|souf- * *|fran- ce,|_|qu'a- mour nous a||qu'a- mour nous|a pour|loy- er pre- sen-|
 E2 B2 c2 A2 | B2 B2 A4 | z2 A2 F2 G2 | C4 z4 | E4 F2 D2 | E4 z2 A2 | A2 G2 A2 F2 | E2 B2 c2 A2 | %41
w: té, pour loy- er|pre- sen- té,|qu'a- mour nous|a|qu'a- mour nous|a pour|loy- er pre- sen-|té, pour loy- er|
 B2 B2 A4- | A8- |"^#" A8 |] %44
w: pre- sen- té.|_||
V:4
 z8 | z8 | z8 | z2 E,2 F,2 D,2 | E,4 z2 A,2 | A,2 G,2 A,2 F,2 | E,4 A,,4- | A,,4 z4 | %8
w: |||De nos deux|cueurs soit|seul- le vo- lun-|* té,|_|
 z2 E,2 G,2 F,2 | E,4 z2 F,2 | E,2 C,2 D,2 E,2 | F,4 E,4 | A,,2 A,4 G,2 | A,4 E,4 | z2 A,4 G,2 | %15
w: et le vou-|loir, vray-|sem- * * blant|de beaul-|té, main- tien|en luy,|main- *|
 A,4 E,4 | A,,8 | E,6 C,2 | F,2 F,2 E,2 D,2 | A,4 G,4 | z2 C4 B,2 | A,4 G,4 | z2 D,2 E,2 C,2 | %23
w: tien en|luy,|mu- tu-|el- le'al- le- gean-|* ce,|sanq con-|ver- tir|le plai- *|
 G,4 z2 E,2 | F,2 E,2 C,4 | D,3 E, F,2 G,2 | D,4 G,4 | z2 E,2 F,2 D,2 | E,4 z4 | z2 E,2 D,2 F,2 | %30
w: sie en|souf- * fran-||* ce,|qu'a- mour nous|a,|qu'a- mour nous|
 E,4 z4 | z2 E,2 F,2 D,2 | E,4 z2 A,2 | A,2 G,2 A,2 F,2 | E,4 A,,4- | A,,4 z4 | z2 E,2 D,2 F,2 | %37
w: a|qu'a- mour nous|a pour|loy- er pre- *|sen- té,|_|qu'a- mour nous|
 E,4 z4 | z2 E,2 F,2 D,2 | E,4 z2 A,2 | A,2 G,2 A,2 F,2 | E,4 A,,2 D,2- | D,2 C,2 D,4 | A,,8 |] %44
w: a|qu'a- mour nous|a pour|loy- er pre- *|sen- té, pre-|* * sen-|té.|

